X:1
T:6 Lieder, Op.26
T:Schilflied
T:Frau Clara Schumann freundlichst gewidmet
T:6 Lieder, Op.26
T:Josephine Lang
T:6. Schilflied
T:Nikolaus Lenau 
T:Creative Commons copyright waiver (CC0 1.0 Universal)
T:Creative Commons copyright waiver (CC0 1.0 Universal)
C:Josephine Lang
Z:Nikolaus Lenau
Z:Creative Commons copyright waiver (CC0 1.0 Universal)
%%score 1 { 2 | ( 3 4 5 ) }
L:1/8
Q:1/4=92
M:4/4
K:A
V:1 treble nm="Singstimme\nVoice"
V:2 treble nm="Pianoforte"
V:3 bass 
V:4 bass 
V:5 bass 
V:1
"^Andante"!<(! E2 F2 G2 A2!<)! | B2!>(! c2 B2 A2 | G2 F2 E2 ^D2!>)! | =D3 A !tenuto!.A4 | %4
w: Drü- ben geht die|Son- ne schei- den|und der mü- de|Tag ent- schlief,|
!<(! B3 E!<)!!>(! E2 E2!>)! | E3 E B2 A2 | G2 =G2 !tenuto!.F3 E | E2 z c !tenuto!.c4 | B3 F F4- | %9
w: nie- der han- gen|hier die Wei- den|in den Teich, so|still, so tief,|in den Teich,|
 !tenuto!.F3 E E4- | E3 C C2 z B, |!<(! !tenuto!.B,8!<)! || %12
w: _ so tief,|_ so still, so|tief.|
[K:C][Q:1/4=94]!f!!>(! C2!>)! z!mp!!<(! D E2 A2!<)! |!>(! c3 B A2 E2!>)! | %14
w: Und ich muss mein|Lieb- stes mei- den,|
[Q:1/4=96] C2 z"^Modern German\nspelling: \"Träne\"\n""^cresc." E G2 ^G2 | A3 G D2 z2 | %16
w: quill', o Trä- ne,|quill' her- vor!|
[Q:1/4=100] E3 D C2 E2 | c3 B A2 E2 | B,2[Q:1/4=120]"^animato" z!mf! E B2 E2 | B,3 ^F !tenuto!.B4 | %20
w: trau- rig säu- seln|hier die Wei- den|und im Win- de|bebt das Rohr,|
[Q:1/4=115]"^ritard." D3 C B,2 D2 |[Q:1/4=110] ^G3 F E2 B,2 | z8 | z8 | %24
w: und ich muss mein|Lieb- stes mei- den,|||
!mf!!<(! D3"^Modern spelling:\n    \"Träne\"\n" B, ^G2 E2!<)! |!>(! d3 B !tenuto!.^G4!>)! | A6 B2 | %27
w: quill', o Trä- ne,|quill' her- vor,|quill' her-|
 (B4[Q:1/4=100] E2) z2[Q:1/4=100]"^rit." || %28
w: vor! _|
[K:A][Q:1/4=92]"^Tempo I""^dolce"!mp!!<(! E2 F2 G2 A2!<)! |!>(! B2 c2 B2 A2!>)! | G2 F2 E2 ^D2 | %31
w: Wie durch Bin- sen|hier und Wei- den|strahlt des A- bend-|
 =D3 A A2 z2 | B3 E E2 E2 | E3 E B2 A2 | G2 =G2 F2 !tenuto!.E2 | E3 c c4 |!<(! (B3 F) !tenuto!.F4 | %37
w: ster- nes Bild,|in mein stil- les,|tie- fes Lei- den|strahlst du fer- ne,|hell und mild,|fer- * ne,|
 (=d3 E)!<)! !tenuto!.E4[Q:1/4=91] | %38
w: fer- * ne,|
[Q:1/4=90]!>(! FE DC!>)!!p![Q:1/4=88]!>(! ED[Q:1/4=84] (3DC B,!>)! |"_Lenau" A,8 |] %40
w: fer- * ne * hell _ _ _  und|mild!|
V:2
!<(! [A,CE]2 [A,CF]2 [A,CG]2 [A,CA]2!<)! | [CEB]2 [CEc]2!>(! [CEB]2 [CEA]2 | %2
 [A,CG]2 [A,CF]2 [A,CE]2 [A,=C^D]2!>)! | =D3 A [=FA]4 | %4
!<(! [B,DEB]2 [A,DEA]2!<)!!>(! [G,DEG]2 [A,DEA]2!>)! | [B,DEB]2 [A,DEA]2!<(! [G,DEG]2 [A,CEA]2 | %6
 [B,EB]2 [CEc]2 [^DF^d]2 [EBe]2!<)! |!p!!>(! ([E=G^Ae]2 [EGAc]2 [CEGA]2 [^A,CEG]2)!>)! | %8
 [=A,B,^DF]2 [F,A,B,D]2 [F,A,B,D]2 [F,A,B,D]2 | %9
 [B,EB] z!mp!!<(![I:staff +1] [E,G,B,]2 [E,G,B,]2 [E,G,B,]2!<)! | %10
!p![I:staff -1] [F^Acf]2 [F,^A,CF]2 [=AB^d=a]2 [=A,B,^D=A]2 | %11
 [GBeg]2!<(! [G,B,EG]2 [G,B,EG]2 [G,B,EG]2!<)! ||[K:C]!f! [A,CEA] z!mp! [CE]2 [CE]2 [CE]2 | %13
 [CE]2 [CE]2 [CE]2 [CE]2 | [CE]2 [CE]2"_cresc." [CE]2 [CE]2 | [B,D]2 [B,D]2 [B,D]2 [B,D]2 | %16
 [DE]2 [DE]2 [CE]2 [CE]2 | [DE]2 [DE]2 [CE]2 [CE]2 | [B,E]!p! z [B,EB]2 [B,EB]2 [B,EB]2 | %19
 [B,^FB]2!<(! [B,^DA]2 [^G,B,E^G]2!<)! [G,B,EG]2 |!p! z2 [^G,B,D]2"_rit." [G,B,D]2 [G,B,D]2 | %21
 z2 [^G,B,D]2 [G,B,D]2 [G,B,D]2 | %22
!mp!!<(! [Ee]3"^change to quaver, to\nfollow dotted crochet\n" [=F=f] [EAce]2 [Aea]2 | %23
 [Beb]2!<)!!>(! [cec']2 [Beb]4!>)! | z2!<(! [^G,B,D]2 [G,B,D]2 [G,B,D]2!<)! | %25
 z2!>(! [B,D^GB]2 [B,DGB]2 [B,DGB]2!>)! | [=FA]6 ^D2 | E8 || %28
[K:A]!p!"^Tempo I"!<(! [A,CE]2 [A,CF]2 [A,CG]2 [A,CA]2!<)! |!>(! [CEB]2 [CEc]2 [CEB]2 [CEA]2!>)! | %30
 [A,CG]2 [A,CF]2 [A,CE]2 [A,=C^D]2 | D3 A [=FA]4 |!<(! [B,DEB]2 [A,DEA]2 [G,DEG]2 [A,DEA]2!<)! | %33
!>(! [B,DEB]2 [A,DEA]2 [G,DEG]2 [A,DEA]2!>)! |!<(! [B,EB]2 [CEc]2 [^DF^d]2 [EBe]2!<)! | %35
!>(! [Ee]2 [E=G^Ac]2 [CEGA]2!>)! [^A,CEG]2 | %36
!pp! [=A,B,^DF]2 [A,B,D]2!<(![I:staff +1] [^D,F,A,B,]2[I:staff -1] [A,B,D]2 | %37
 E2 !arpeggio![=DEG]2"_cresc." [DEGB]2 [DEGBd]2!<)! | %38
!f! [CEAc]2 [C,E,A,C]2 [B,DGB]2"_dimin."[I:staff +1] [D,E,G,B,]2 | %39
[I:staff -1] [CEAc]2[I:staff +1] [C,E,A,C]2 [C,E,A,C]2 !fermata![C,E,A,C]2 |] %40
V:3
 [A,,E,]2 [A,,F,]2 [A,,E,]2 [A,,E,]2 | [A,,E,A,]2 [A,,E,A,]2 [A,,E,A,]2 [A,,E,A,]2 | %2
 [A,,E,]2 [A,,E,]2 [A,,E,]2 [A,,F,]2 | [A,,=F,]2 [A,,F,]2 [A,,D,]2 [A,,D,]2 | %4
 [G,,E,]2 [A,,E,]2 [B,,E,]2 [A,,E,]2 | [G,,E,]2 [A,,E,]2 [B,,E,]2 [C,E,]2 | %6
 [B,,G,]2 [B,,^A,]2 [B,,=A,]2 [B,,G,]2 | [B,,,B,,]8 | [B,,,B,,]8 | [B,,G,]2 [B,,,B,,]6 | %10
 [B,,C,F,A,]2 [B,,,B,,]2 [B,,^D,F,B,]2 [B,,,B,,]2 | [E,B,E]2 [E,,B,,E,]2 [E,,B,,E,]2 [E,,B,,E,]2 || %12
[K:C] [A,,E,] z [A,,,E,,A,,]2 [A,,,E,,A,,]2 [A,,,E,,A,,]2 | %13
 [A,,,E,,A,,]2 [A,,,E,,A,,]2 [A,,,E,,A,,]2 [A,,,E,,A,,]2 | %14
 [G,,,G,,]2 [G,,,G,,]2 [G,,,G,,]2 [G,,,G,,]2 | [G,,,G,,]2 [G,,,G,,]2 [G,,,G,,]2 G,,2 | %16
 [E,,B,,]2 [E,,B,,]2 [A,,,A,,]2 [A,,,A,,]2 | %17
 [A,,,E,,B,,]2 [A,,,E,,B,,]2 [A,,,E,,A,,]2 [A,,,E,,A,,]2 | %18
 [B,,,E,,B,,] z [B,,^G,]2 [B,,G,]2 [B,,G,]2 | [B,,^D,A,]2 [B,,^F,]2 [E,,B,,E,]2 [E,,B,,E,]2 | %20
 [E,,E,]8 | [E,,E,]8 | [E,A,C]2 [E,A,C]2 [E,A,C]2 [E,A,E]2 | %23
 [E,^G,B,E]2 [E,^F,A,E]2 [E,G,E]2 [E,G,E]2 | [E,,E,]8 | [E,,E,]8 | F,2 F,2 F,2 F,2 | %27
 [E,,B,,E,]2 [E,,B,,E,]2 [E,,B,,E,]2 [E,,B,,E,]2 || %28
[K:A] [A,,E,]2"_m1: A+F\nm29: A+E\n" [A,,E,]2 [A,,E,]2 [A,,E,]2 | %29
"_These three differences from the first section\nlook like copying errors, but they do not change\nthe sound noticeably, so I don't know if they\nmerit comment, let alone editorial change.\n" [A,,E,A,]2 [A,,E,A,]2 [A,,E,A,]2 [A,,E,A,]2 | %30
 [A,,E,]2 [A,,E,]2 [A,,E,]2 [A,,F,]2 | [A,,=F,]2"_m4: A+F\nm32: A+D\n" [A,,D,]2 [A,,D,]2 [A,,D,]2 | %32
 [G,,E,]2 [A,,E,]2 [B,,E,]2 [A,,E,]2 | [G,,E,]2 [A,,E,]2 [B,,E,]2 [C,E,]2 | %34
"_m7: B+G\nm35: B+E+G\n" [B,,E,G,]2 [B,,^A,]2 [B,,=A,]2 [B,,G,]2 | [B,,,B,,]8 | [B,,,B,,]8 | %37
 [E,,,E,,]8 | E,,4 [E,,,E,,]4 | %39
 [A,,E,]2 [A,,,E,,A,,]2 [A,,,E,,A,,]2"_FINE." !fermata![A,,,E,,A,,]2 |] %40
V:4
 x8 | x8 | x8 |[I:staff -1] [A,B,]2 [A,B,]2 [A,B,]2 [A,B,]2 | x8 | x8 | x8 | x8 | x8 | x8 | x8 | %11
 x8 ||[K:C] x2[I:staff +1] E,2 E,2 E,2 | E,2 E,2 E,2 E,2 | [E,G,]2 [E,G,]2 [E,G,]2 [E,G,]2 | %15
 [F,G,]2 [F,G,]2 [F,G,]2 [F,G,]2 | [E,^G,]2 [E,G,]2 [E,A,]2 [E,A,]2 | %17
 [E,^G,]2 [E,G,]2 [E,A,]2 [E,A,]2 | [E,^G,] x7 | x8 | x8 | x8 |[I:staff -1] [Ac]4 x4 | x8 | x8 | %25
 x8 |[I:staff +1] [A,C]2 [A,^C]2 [A,D]2 A,2 | [^G,B,]2 [G,B,]2"_riten." [G,B,]2 [G,B,]2 || %28
[K:A] x8 | x8 | x8 |[I:staff -1] [A,B,]2 [A,B,]2 [A,B,]2 [A,B,]2 | x8 | x8 | x8 | x8 | %36
 x2[I:staff +1] F,2 x2 F,2 | !arpeggio![E,G,B,]2 [G,B,]2 B,2 x2 | x8 | x8 |] %40
V:5
 x8 | x8 | x8 | x8 | x8 | x8 | x8 | x8 | x8 | x8 | x8 | x8 ||[K:C] x8 | x8 | x8 | x8 | x8 | x8 | %18
 x8 | x8 | x8 | x8 | x8 | x8 | x8 | x8 | x2 F,,4 F,,2 | x8 ||[K:A] x8 | x8 | x8 | x8 | x8 | x8 | %34
 x8 | x8 | x8 | x8 | x8 | x8 |] %40

